assets/Empty nest/Flat/empty_nest_flat.svg

<svg width="32" height="32" viewBox="0 0 32 32" fill="none" xmlns="http://www.w3.org/2000/svg">
<path d="M21.1656 26.5787V26L18.4291 26C16.536 26 15 27.536 15 29.4291V29.623C15 29.8354 15.1724 30.0078 15.3848 30.0078H17.7365C19.6296 30.0078 21.1656 28.4718 21.1656 26.5787Z" fill="#00D26A"/>
<path d="M2 19.0976L30 7.90234V12.9023L14.5052 18.9805H30V24.0976H22.5707C22.4172 24.0976 22.3628 24.3008 22.4957 24.3776L24.2227 25.3747C25.5324 26.1308 24.9959 28.1328 23.4837 28.1328C23.2242 28.1328 22.9693 28.0645 22.7446 27.9348L17.2588 24.7675C16.4987 24.3287 15.6365 24.0976 14.7588 24.0976H2V19.0976Z" fill="#7D4533"/>
<path fill-rule="evenodd" clip-rule="evenodd" d="M21.7532 2.84868C21.5932 3.07371 21.6459 3.38588 21.8709 3.54592C22.7372 4.16204 23.7215 5.43355 24.5162 7.10034C22.7912 5.15892 19.5951 3.00004 14.3438 3.00004C14.0676 3.00004 13.8438 3.2239 13.8438 3.50004C13.8438 3.77618 14.0676 4.00004 14.3438 4.00004C16.7663 4.00004 18.7069 4.48529 20.2388 5.18645C19.679 5.07034 19.0989 5.00932 18.5047 5.00932H13.4954C11.3848 5.00932 9.45401 5.77897 7.96832 7.05293C8.63352 6.14946 9.38723 5.44558 10.0984 4.93836C10.3232 4.77801 10.3755 4.46577 10.2151 4.24095C10.0548 4.01613 9.74252 3.96387 9.5177 4.12422C7.40358 5.6321 4.98663 8.67973 4.98663 13.294C4.98663 13.3345 4.99146 13.374 5.00056 13.4117C5.00023 13.4426 5.00006 13.4736 5.00006 13.5047C5.00006 18.1965 8.80356 22 13.4954 22H18.5047C23.1965 22 27 18.1965 27 13.5047C27 13.3832 26.9975 13.2624 26.9924 13.1423C26.9544 10.9253 26.3656 8.74273 25.538 6.92563C24.6875 5.05831 23.5576 3.51842 22.4505 2.73101C22.2254 2.57096 21.9133 2.62364 21.7532 2.84868Z" fill="#F3AD61"/>
<path fill-rule="evenodd" clip-rule="evenodd" d="M12.9974 5.81836C10.3163 5.81836 8.14288 7.99178 8.14288 10.6728C8.14288 13.3539 10.3163 15.5273 12.9974 15.5273H14.5836C16.6845 15.3359 18.9607 14.6916 20.795 12.6804C20.9811 12.4764 21.2973 12.4618 21.5014 12.6479C21.7054 12.834 21.7199 13.1502 21.5338 13.3543C20.6243 14.3515 19.6199 15.0454 18.589 15.5273H19.0027C21.6837 15.5273 23.8571 13.3539 23.8571 10.6728C23.8571 7.99178 21.6837 5.81836 19.0026 5.81836H12.9974Z" fill="#B97028"/>
<path fill-rule="evenodd" clip-rule="evenodd" d="M14.5835 15.5273H12.8572C10.6159 15.5273 8.73992 13.9167 8.26117 11.7582C8.66275 10.2017 10.0406 9.05469 11.6786 9.05469H20.3214C21.9594 9.05469 23.3373 10.2017 23.7389 11.7582C23.2601 13.9167 21.3841 15.5273 19.1429 15.5273H18.589C19.6199 15.0455 20.6243 14.3515 21.5338 13.3543C21.7199 13.1502 21.7054 12.834 21.5014 12.6479C21.2973 12.4618 20.9811 12.4764 20.795 12.6804C18.9607 14.6916 16.6844 15.3359 14.5835 15.5273Z" fill="#7D4533"/>
</svg>

<svg xmlns="http://www.w3.org/2000/svg" width="32" height="32" fill="none"><path fill="#00D26A" d="M21.166 26.579V26h-2.737A3.43 3.43 0 0 0 15 29.43v.193c0 .212.172.385.385.385h2.351a3.43 3.43 0 0 0 3.43-3.43Z"/><path fill="#7D4533" d="M2 19.098 30 7.902v5l-15.495 6.079H30v5.117h-7.43c-.153 0-.207.203-.074.28l1.727.997c1.31.756.773 2.758-.74 2.758-.259 0-.514-.069-.738-.198l-5.486-3.168a5 5 0 0 0-2.5-.67H2v-5Z"/><path fill="#F3AD61" fill-rule="evenodd" d="M21.753 2.849a.5.5 0 0 0 .118.697c.866.616 1.85 1.888 2.645 3.554C22.791 5.16 19.596 3 14.344 3a.5.5 0 1 0 0 1c2.422 0 4.363.485 5.895 1.186a8.532 8.532 0 0 0-1.734-.177h-5.01c-2.11 0-4.041.77-5.527 2.044a9.598 9.598 0 0 1 2.13-2.115.5.5 0 1 0-.58-.814c-2.114 1.508-4.531 4.556-4.531 9.17 0 .04.004.08.014.118v.093A8.495 8.495 0 0 0 13.494 22h5.01a8.495 8.495 0 0 0 8.487-8.858c-.038-2.217-.626-4.4-1.454-6.216-.85-1.868-1.98-3.408-3.087-4.195a.5.5 0 0 0-.698.118Z" clip-rule="evenodd"/><path fill="#B97028" fill-rule="evenodd" d="M12.997 5.818a4.854 4.854 0 1 0 0 9.71h1.587c2.1-.192 4.377-.836 6.211-2.848a.5.5 0 1 1 .739.674 9.248 9.248 0 0 1-2.945 2.173h.414a4.854 4.854 0 1 0 0-9.709h-6.006Z" clip-rule="evenodd"/><path fill="#7D4533" fill-rule="evenodd" d="M14.584 15.527h-1.727c-2.241 0-4.117-1.61-4.596-3.769.402-1.556 1.78-2.703 3.418-2.703h8.642c1.638 0 3.016 1.147 3.418 2.703-.479 2.159-2.355 3.77-4.596 3.77h-.554a9.246 9.246 0 0 0 2.945-2.174.5.5 0 1 0-.739-.674c-1.834 2.012-4.11 2.656-6.212 2.847Z" clip-rule="evenodd"/></svg>
